X:58
T:RVW2/2/58 Courtship
C:James Punt, East Horndon, Essex, 23 April 1904
L:1/8
Q:1/4=110
M:6/8
I:linebreak $
K:G
"^(Editorial suggestion  " (D2 F) | G3 G2 F | D3 (G2 A) |"^(a)" B3 B2 G | E3 E2 F |$ G3 (G2 E) | 
w: Oh, _|once I did|court a _|fair beau- ty|bright and on|this fair _|
D3 D2 G | B2 B (BA)G | A3 (B2 A) |$ B2 B A2 G | E3 (c2 B) | A2 A (FE)D | (E2 F GF)E |$ 
w: crea- ture I|fixed my heart's _ de-|light. She _|gran- ted me her|love, it _|was to love _ a-|gain _ _ _ be-|
D2 C B,2 C | D3 G2"^(b)" A/A/ | B2 c d2 d | G3 ||$ (D2 F) | G3 G2 F | D3 (G2 A) | 
w: fore I had any|rea- son or oc-|ca- sion to com-|plain.||||
"^(a) var." B2 B B2 G | E3 E2 F |$ G3 (G2 E) | D3 D2 G | B2 B (BA)G | A3 (B2 A) |$ B2 B A2 G | 
w: |||||||
E3 (c2 B) | A2 A (FE)D | (E2 F GF)E |$ D2 C B,2 C | D3 G2"^(b) var." A | B2 c d2 d | G3 |] 
w: |||||||



